app/assets/images/payment_icons/usdp.svg

<svg width="38" height="24" viewBox="0 0 38 24" fill="none" xmlns="http://www.w3.org/2000/svg" role="img" aria-labelledby="pi-usdp">
<rect width="38" height="24" fill="white"/>
<path opacity="0.07" d="M35 0H3C1.3 0 0 1.3 0 3V21C0 22.7 1.4 24 3 24H35C36.7 24 38 22.7 38 21V3C38 1.3 36.6 0 35 0Z" fill="black"/>
<path d="M35 1C36.1 1 37 1.9 37 3V21C37 22.1 36.1 23 35 23H3C1.9 23 1 22.1 1 21V3C1 1.9 1.9 1 3 1H35Z" fill="white"/>
<circle cx="19" cy="12" r="8" fill="url(#paint0_linear_3_214)"/>
<path fill-rule="evenodd" clip-rule="evenodd" d="M19.6666 7.20001H18.3503V11.3956H19.6666V12.3829H18.3503V16.5785H19.6666V7.20001Z" fill="white"/>
<path fill-rule="evenodd" clip-rule="evenodd" d="M17.034 10.6552C17.034 10.2744 17.1396 10.0702 17.2571 9.95772C17.3784 9.84156 17.5885 9.7503 17.939 9.7503H22.0112V8.76309H17.6921C17.1788 8.76309 16.6896 8.89807 16.3276 9.24466C15.9618 9.59489 15.8 10.09 15.8 10.6552C15.8 11.245 15.9993 11.7166 16.4024 12.0209C16.7787 12.3051 17.2555 12.3829 17.6921 12.3829H18.3503V11.3956H17.939C17.594 11.3956 17.3716 11.3294 17.244 11.2331C17.1432 11.1569 17.034 11.0116 17.034 10.6552ZM19.6666 11.3956V12.3829H20.3658C20.5852 12.3829 20.7161 12.4703 20.8098 12.6042C20.9171 12.7574 20.9828 12.9899 20.9828 13.2467C20.9828 13.3738 20.9306 13.5812 20.8126 13.7464C20.7058 13.8959 20.5664 13.9871 20.3658 13.9871H15.9234V14.9743H20.5304C21.1113 14.9743 21.6095 14.6747 21.8627 14.3202C22.1046 13.9816 22.2168 13.572 22.2168 13.2467C22.2168 12.8452 22.1181 12.399 21.8654 12.0381C21.5992 11.6578 21.0926 11.3956 20.5304 11.3956H19.6666Z" fill="white"/>
<defs>
<linearGradient id="paint0_linear_3_214" x1="11" y1="14.24" x2="25.08" y2="6.88" gradientUnits="userSpaceOnUse">
<stop stop-color="#004A28"/>
<stop offset="0.494792" stop-color="#00A14E"/>
<stop offset="1" stop-color="#93D536"/>
</linearGradient>
</defs>
</svg>

<svg width="38" height="24" fill="none" xmlns="http://www.w3.org/2000/svg" aria-labelledby="pi-usdp"><path fill="#fff" d="M0 0h38v24H0z"/><path opacity=".07" d="M35 0H3C1.3 0 0 1.3 0 3v18c0 1.7 1.4 3 3 3h32c1.7 0 3-1.3 3-3V3c0-1.7-1.4-3-3-3Z" fill="#000"/><path d="M35 1c1.1 0 2 .9 2 2v18c0 1.1-.9 2-2 2H3c-1.1 0-2-.9-2-2V3c0-1.1.9-2 2-2h32Z" fill="#fff"/><circle cx="19" cy="12" r="8" fill="url(#a)"/><path fill-rule="evenodd" clip-rule="evenodd" d="M19.667 7.2H18.35v4.196h1.317v.987H18.35v4.195h1.317V7.2Z" fill="#fff"/><path fill-rule="evenodd" clip-rule="evenodd" d="M17.034 10.655c0-.38.106-.585.223-.697.121-.116.331-.208.682-.208h4.072v-.987h-4.319c-.513 0-1.002.135-1.364.482-.366.35-.528.845-.528 1.41 0 .59.2 1.062.602 1.366.377.284.854.362 1.29.362h.658v-.987h-.411c-.345 0-.567-.067-.695-.163-.1-.076-.21-.221-.21-.578Zm2.633.74v.988h.699c.22 0 .35.087.444.221.107.153.173.386.173.643a.943.943 0 0 1-.17.5.52.52 0 0 1-.447.24h-4.443v.987h4.607c.581 0 1.08-.3 1.333-.654.242-.338.354-.748.354-1.073 0-.402-.099-.848-.352-1.209-.266-.38-.772-.642-1.335-.642h-.863Z" fill="#fff"/><defs><linearGradient id="a" x1="11" y1="14.24" x2="25.08" y2="6.88" gradientUnits="userSpaceOnUse"><stop stop-color="#004A28"/><stop offset=".495" stop-color="#00A14E"/><stop offset="1" stop-color="#93D536"/></linearGradient></defs></svg>
